cssgg/git-fork.svg

<svg
  width="24"
  height="24"
  viewBox="0 0 24 24"
  fill="none"
  xmlns="http://www.w3.org/2000/svg"
>
  <path
    d="M7 5C7 3.89543 7.89543 3 9 3C10.1046 3 11 3.89543 11 5C11 5.74028 10.5978 6.38663 10 6.73244V14.0396H11.7915C12.8961 14.0396 13.7915 13.1441 13.7915 12.0396V10.7838C13.1823 10.4411 12.7708 9.78837 12.7708 9.03955C12.7708 7.93498 13.6662 7.03955 14.7708 7.03955C15.8753 7.03955 16.7708 7.93498 16.7708 9.03955C16.7708 9.77123 16.3778 10.4111 15.7915 10.7598V12.0396C15.7915 14.2487 14.0006 16.0396 11.7915 16.0396H10V17.2676C10.5978 17.6134 11 18.2597 11 19C11 20.1046 10.1046 21 9 21C7.89543 21 7 20.1046 7 19C7 18.2597 7.4022 17.6134 8 17.2676V6.73244C7.4022 6.38663 7 5.74028 7 5Z"
    fill="currentColor"
  />
</svg>

<svg viewBox="0 0 24 24" xmlns="http://www.w3.org/2000/svg"><path d="M7 5c0-1.11.89-2 2-2 1.1 0 2 .89 2 2 0 .74-.41 1.38-1 1.73v7.3h1.79c1.1 0 2-.9 2-2v-1.26c-.61-.35-1.03-1-1.03-1.75 0-1.11.89-2 2-2 1.1 0 2 .89 2 2 0 .73-.4 1.37-.98 1.72v1.27c0 2.2-1.8 4-4 4h-1.8v1.22c.59.34 1 .99 1 1.73 0 1.1-.9 2-2 2 -1.11 0-2-.9-2-2 0-.75.4-1.39 1-1.74V6.68c-.6-.35-1-1-1-1.74Z"/></svg>
